assets/icons/informations/timer.svg

<svg viewBox="0 0 24 24" xmlns="http://www.w3.org/2000/svg">
<path d="M10 3C9.71667 3 9.47933 2.904 9.288 2.712C9.096 2.52067 9 2.28333 9 2C9 1.71667 9.096 1.479 9.288 1.287C9.47933 1.09567 9.71667 1 10 1H14C14.2833 1 14.521 1.09567 14.713 1.287C14.9043 1.479 15 1.71667 15 2C15 2.28333 14.9043 2.52067 14.713 2.712C14.521 2.904 14.2833 3 14 3H10ZM12 14C12.2833 14 12.521 13.904 12.713 13.712C12.9043 13.5207 13 13.2833 13 13V9C13 8.71667 12.9043 8.479 12.713 8.287C12.521 8.09567 12.2833 8 12 8C11.7167 8 11.4793 8.09567 11.288 8.287C11.096 8.479 11 8.71667 11 9V13C11 13.2833 11.096 13.5207 11.288 13.712C11.4793 13.904 11.7167 14 12 14ZM12 22C10.7667 22 9.604 21.7627 8.512 21.288C7.42067 20.8127 6.46667 20.1667 5.65 19.35C4.83333 18.5333 4.18733 17.5793 3.712 16.488C3.23733 15.396 3 14.2333 3 13C3 11.7667 3.23733 10.604 3.712 9.512C4.18733 8.42067 4.83333 7.46667 5.65 6.65C6.46667 5.83333 7.42067 5.18767 8.512 4.713C9.604 4.23767 10.7667 4 12 4C13.0333 4 14.025 4.16667 14.975 4.5C15.925 4.83333 16.8167 5.31667 17.65 5.95L18.375 5.225C18.5583 5.04167 18.7833 4.95 19.05 4.95C19.3167 4.95 19.55 5.05 19.75 5.25C19.9333 5.43333 20.025 5.66667 20.025 5.95C20.025 6.23333 19.9333 6.46667 19.75 6.65L19.05 7.35C19.6833 8.18333 20.1667 9.075 20.5 10.025C20.8333 10.975 21 11.9667 21 13C21 14.2333 20.7627 15.396 20.288 16.488C19.8127 17.5793 19.1667 18.5333 18.35 19.35C17.5333 20.1667 16.5793 20.8127 15.488 21.288C14.396 21.7627 13.2333 22 12 22Z" fill="inherit"/>
</svg>

<svg viewBox="0 0 24 24" xmlns="http://www.w3.org/2000/svg"><path d="M10 3a1 1 0 0 1-.7-.3A1 1 0 0 1 9 2c0-.3.1-.5.3-.7.2-.2.4-.3.7-.3h4c.3 0 .5.1.7.3.2.2.3.4.3.7 0 .3-.1.5-.3.7a1 1 0 0 1-.7.3h-4Zm2 11c.3 0 .5-.1.7-.3.2-.2.3-.4.3-.7V9a1 1 0 0 0-.3-.7A1 1 0 0 0 12 8a1 1 0 0 0-.7.3 1 1 0 0 0-.3.7v4c0 .3.1.5.3.7.2.2.4.3.7.3Zm0 8c-1.2 0-2.4-.2-3.5-.7a9.2 9.2 0 0 1-4.8-4.8 8.7 8.7 0 0 1 0-7 9.2 9.2 0 0 1 4.8-4.8A9 9 0 0 1 17.6 6l.8-.7c.2-.2.4-.3.7-.3l.6.3c.2.2.3.5.3.8 0 .2 0 .5-.3.7l-.6.6c.6.9 1 1.8 1.4 2.7a9 9 0 0 1-2.1 9.4A9.2 9.2 0 0 1 12 22Z" fill="inherit"/></svg>
